app/Resources/icons/file-copy.svg

<svg xmlns="http://www.w3.org/2000/svg" viewBox="0 0 24 24"><path d="M6.9998 6V3C6.9998 2.44772 7.44752 2 7.9998 2H19.9998C20.5521 2 20.9998 2.44772 20.9998 3V17C20.9998 17.5523 20.5521 18 19.9998 18H16.9998V20.9991C16.9998 21.5519 16.5499 22 15.993 22H4.00666C3.45059 22 3 21.5554 3 20.9991L3.0026 7.00087C3.0027 6.44811 3.45264 6 4.00942 6H6.9998ZM8.9998 6H16.9998V16H18.9998V4H8.9998V6Z"></path></svg>

<svg xmlns="http://www.w3.org/2000/svg" viewBox="0 0 24 24">
    <g>
        <path fill="none" d="M0 0h24v24H0z"/>
        <path d="M7 6V3a1 1 0 0 1 1-1h12a1 1 0 0 1 1 1v14a1 1 0 0 1-1 1h-3v3c0 .552-.45 1-1.007 1H4.007A1.001 1.001 0 0 1 3 21l.003-14c0-.552.45-1 1.007-1H7zm2 0h8v10h2V4H9v2zm-2 5v2h6v-2H7zm0 4v2h6v-2H7z"/>
    </g>
</svg>
